curriculum/images/exercise-icons/guest-list.svg

<svg width="82" height="84" viewBox="0 0 82 84" fill="none" xmlns="http://www.w3.org/2000/svg">
<path d="M41 81.432C63.0914 81.432 81 63.5234 81 41.432C81 19.3406 63.0914 1.43201 41 1.43201C18.9086 1.43201 1 19.3406 1 41.432C1 63.5234 18.9086 81.432 41 81.432Z" fill="#DAEDF7" stroke="#DAEDF7" stroke-miterlimit="10"/>
<path d="M15.241 53.506V78.667H21.951L22.717 61.052C22.7385 60.6024 22.9323 60.1783 23.2581 59.8676C23.584 59.557 24.0169 59.3837 24.467 59.3837C24.9172 59.3837 25.3501 59.557 25.6759 59.8676C26.0018 60.1783 26.1955 60.6024 26.217 61.052L26.983 78.667H33.693V53.506H15.241Z" fill="#87898C"/>
<path d="M21.088 59.727L24.468 57.699L27.894 59.755C28.1327 59.8982 28.4009 59.9849 28.6783 60.0085C28.9556 60.032 29.2346 59.9919 29.494 59.891L33.694 58.259V53.506H15.241V57.978L19.407 59.83C19.675 59.9489 19.9675 60.0016 20.2601 59.9837C20.5527 59.9657 20.8366 59.8777 21.088 59.727Z" fill="#45413C"/>
<path d="M15.241 53.506V78.667H21.951L22.717 61.052C22.7385 60.6024 22.9323 60.1783 23.2581 59.8676C23.584 59.557 24.0169 59.3837 24.467 59.3837C24.9172 59.3837 25.3501 59.557 25.6759 59.8676C26.0018 60.1783 26.1955 60.6024 26.217 61.052L26.983 78.667H33.693V53.506H15.241Z" stroke="#45413C" stroke-linecap="round" stroke-linejoin="round"/>
<path d="M9.37197 43.861C9.37987 44.5392 9.45927 45.2146 9.60897 45.876C10.2103 42.429 11.991 39.2982 14.6464 37.0196C17.3018 34.741 20.6667 33.4563 24.165 33.3854C27.6633 33.3145 31.0774 34.4618 33.823 36.631C36.5685 38.8001 38.4746 41.8562 39.215 45.276C39.4422 44.4047 39.5598 43.5084 39.565 42.608C39.6083 40.5982 39.2498 38.5999 38.5106 36.7304C37.7714 34.8609 36.6663 33.1579 35.2602 31.7212C33.854 30.2844 32.1752 29.1429 30.3221 28.3636C28.4689 27.5843 26.4788 27.1829 24.4685 27.1829C22.4582 27.1829 20.4681 27.5843 18.615 28.3636C16.7619 29.1429 15.083 30.2844 13.6769 31.7212C12.2708 33.1579 11.1657 34.8609 10.4265 36.7304C9.68717 38.5999 9.32867 40.5982 9.37197 42.608V43.861Z" fill="#87898C"/>
<path d="M39.565 42.603C39.6083 40.5932 39.2498 38.5949 38.5106 36.7254C37.7714 34.8559 36.6663 33.1529 35.2602 31.7162C33.854 30.2794 32.1752 29.1379 30.3221 28.3586C28.4689 27.5793 26.4788 27.1779 24.4685 27.1779C22.4582 27.1779 20.4681 27.5793 18.615 28.3586C16.7619 29.1379 15.083 30.2794 13.6769 31.7162C12.2708 33.1529 11.1657 34.8559 10.4265 36.7254C9.68717 38.5949 9.32867 40.5932 9.37197 42.603V43.861C9.37387 45.7523 9.93107 47.6015 10.9744 49.179C12.0178 50.7565 13.5013 51.993 15.241 52.735V53.506H33.694V52.269C35.4632 51.349 36.946 49.9613 37.9812 48.257C39.0164 46.5527 39.5642 44.5971 39.565 42.603Z" fill="#87898C"/>
<path d="M39.565 42.603C39.6083 40.5932 39.2498 38.5949 38.5106 36.7254C37.7714 34.8559 36.6663 33.1529 35.2602 31.7162C33.854 30.2794 32.1752 29.1379 30.3221 28.3586C28.4689 27.5793 26.4788 27.1779 24.4685 27.1779C22.4582 27.1779 20.4681 27.5793 18.615 28.3586C16.7619 29.1379 15.083 30.2794 13.6769 31.7162C12.2708 33.1529 11.1657 34.8559 10.4265 36.7254C9.68717 38.5949 9.32867 40.5932 9.37197 42.603V43.861C9.37387 45.7523 9.93107 47.6015 10.9744 49.179C12.0178 50.7565 13.5013 51.993 15.241 52.735V53.506H33.694V52.269C35.4632 51.349 36.946 49.9613 37.9812 48.257C39.0164 46.5527 39.5642 44.5971 39.565 42.603Z" stroke="#45413C" stroke-linecap="round" stroke-linejoin="round"/>
<path opacity="0.15" d="M24.479 83C32.1989 83 38.457 82.0612 38.457 80.903C38.457 79.7449 32.1989 78.806 24.479 78.806C16.7592 78.806 10.501 79.7449 10.501 80.903C10.501 82.0612 16.7592 83 24.479 83Z" fill="#45413C"/>
<path d="M14.192 77.339C14.0541 77.55 13.9757 77.7942 13.9651 78.046C13.9545 78.2977 14.012 78.5477 14.1316 78.7695C14.2512 78.9913 14.4285 79.1767 14.6447 79.3062C14.8609 79.4356 15.108 79.5043 15.36 79.505H21.084C21.324 79.5044 21.5597 79.4421 21.7687 79.3242C21.9776 79.2062 22.1527 79.0365 22.2772 78.8314C22.4017 78.6263 22.4714 78.3927 22.4796 78.1529C22.4878 77.913 22.4342 77.6752 22.324 77.462C20.8 74.535 15.934 74.697 14.192 77.339Z" fill="#45413C" stroke="#45413C" stroke-linecap="round" stroke-linejoin="round"/>
<path d="M34.742 77.339C34.8799 77.55 34.9583 77.7942 34.9689 78.046C34.9795 78.2977 34.922 78.5477 34.8024 78.7695C34.6828 78.9913 34.5056 79.1767 34.2893 79.3062C34.0731 79.4356 33.826 79.5043 33.574 79.505H27.85C27.6101 79.5044 27.3743 79.4421 27.1654 79.3242C26.9564 79.2062 26.7813 79.0365 26.6568 78.8314C26.5323 78.6263 26.4626 78.3927 26.4544 78.1529C26.4462 77.913 26.4998 77.6752 26.61 77.462C28.137 74.535 33 74.697 34.742 77.339Z" fill="#45413C" stroke="#45413C" stroke-linecap="round" stroke-linejoin="round"/>
<path d="M73.0091 70.036H43.9821C43.7168 70.036 43.4625 70.1414 43.275 70.3289C43.0874 70.5165 42.9821 70.7708 42.9821 71.036V72.991H74.0091V71.036C74.0091 70.7708 73.9037 70.5165 73.7162 70.3289C73.5286 70.1414 73.2743 70.036 73.0091 70.036Z" fill="#BF8256" stroke="#45413C" stroke-linecap="round" stroke-linejoin="round"/>
<path d="M72.5311 67.816C72.5312 67.7191 72.5122 67.623 72.4752 67.5335C72.4381 67.4439 72.3838 67.3624 72.3152 67.2939C72.2466 67.2253 72.1652 67.171 72.0756 67.1339C71.986 67.0969 71.89 67.0779 71.7931 67.078H45.2001C45.1031 67.0779 45.007 67.0969 44.9173 67.1339C44.8277 67.171 44.7462 67.2253 44.6776 67.2938C44.6089 67.3624 44.5545 67.4438 44.5173 67.5334C44.4802 67.623 44.4611 67.719 44.4611 67.816V70.036H72.5311V67.816Z" fill="#BF8256" stroke="#45413C" stroke-linecap="round" stroke-linejoin="round"/>
<path d="M33.6939 55.183L27.8229 56.861L24.4679 55.183L21.1129 56.861L15.2419 55.183V53.506H33.6939V55.183Z" fill="white" stroke="#45413C" stroke-linecap="round" stroke-linejoin="round"/>
<path d="M33.694 52.269V40.925" stroke="#45413C" stroke-linecap="round" stroke-linejoin="round"/>
<path d="M24.467 49.316L30.42 28.729C28.5391 27.9221 26.5137 27.506 24.467 27.506C22.4203 27.506 20.395 27.9221 18.514 28.729L24.467 49.316Z" fill="white" stroke="#45413C" stroke-linecap="round" stroke-linejoin="round"/>
<path d="M27.5871 28.729C25.5777 29.477 23.3664 29.477 21.3571 28.729L21.3641 25.05H27.5941L27.5871 28.729Z" fill="#FFCEBF" stroke="#45413C" stroke-linecap="round" stroke-linejoin="round"/>
<path d="M24.468 29.0521V55.1831" stroke="#45413C" stroke-linecap="round" stroke-linejoin="round"/>
<path d="M24.4671 49.3161L18.5141 28.7291C16.7514 29.4866 15.1489 30.5726 13.7921 31.9291L17.7571 35.8941V40.0881L24.4671 49.3161Z" stroke="#45413C" stroke-linecap="round" stroke-linejoin="round"/>
<path d="M24.467 49.3161L30.42 28.7291C32.1827 29.4866 33.7852 30.5726 35.142 31.9291L31.177 35.8941V40.0881L24.467 49.3161Z" stroke="#45413C" stroke-linecap="round" stroke-linejoin="round"/>
<path d="M24.4681 29.051L20.6321 27.078C20.5216 27.021 20.3983 26.9934 20.274 26.9979C20.1498 27.0024 20.0288 27.0388 19.9227 27.1036C19.8166 27.1684 19.7289 27.2594 19.6682 27.3679C19.6075 27.4764 19.5758 27.5987 19.5761 27.723V30.38C19.5761 30.5043 19.608 30.6264 19.6688 30.7347C19.7295 30.8431 19.8171 30.934 19.9231 30.9987C20.0292 31.0635 20.15 31.0999 20.2742 31.1045C20.3983 31.1091 20.5215 31.0818 20.6321 31.025L24.4681 29.051Z" fill="#45413C" stroke="#45413C" stroke-linecap="round" stroke-linejoin="round"/>
<path d="M24.468 29.051L28.305 27.078C28.4155 27.0213 28.5388 26.9939 28.6629 26.9985C28.787 27.0032 28.9079 27.0396 29.0139 27.1043C29.1199 27.1691 29.2075 27.26 29.2683 27.3683C29.3291 27.4767 29.361 27.5988 29.361 27.723V30.38C29.361 30.5042 29.3291 30.6264 29.2683 30.7347C29.2075 30.843 29.1199 30.9339 29.0139 30.9987C28.9079 31.0634 28.787 31.0999 28.6629 31.1045C28.5388 31.1091 28.4155 31.0817 28.305 31.025L24.468 29.051Z" fill="#45413C" stroke="#45413C" stroke-linecap="round" stroke-linejoin="round"/>
<path d="M27.823 52.667C28.4903 52.667 29.1302 52.4019 29.6021 51.9301C30.0739 51.4582 30.339 50.8183 30.339 50.151C30.339 49.4837 30.0739 48.8438 29.6021 48.3719C29.1302 47.9001 28.4903 47.635 27.823 47.635H25.307V52.667H27.823Z" fill="white" stroke="#45413C" stroke-linecap="round" stroke-linejoin="round"/>
<path d="M15.2419 52.735C16.4352 53.2445 17.7194 53.5068 19.0169 53.506H25.3069V47.635H19.0169C18.0163 47.6337 17.057 47.2357 16.3494 46.5283C15.6418 45.8208 15.2435 44.8617 15.2419 43.861V40.925" stroke="#45413C" stroke-linecap="round" stroke-linejoin="round"/>
<path d="M26.823 46.796H20.436C19.8838 46.796 19.436 47.2437 19.436 47.796V59.215C19.436 59.7673 19.8838 60.215 20.436 60.215H26.823C27.3753 60.215 27.823 59.7673 27.823 59.215V47.796C27.823 47.2437 27.3753 46.796 26.823 46.796Z" fill="white" stroke="#45413C" stroke-linecap="round" stroke-linejoin="round"/>
<path d="M34.6761 10.158C33.5071 7.65799 30.9501 5.69499 29.5161 6.36799C28.3721 4.25899 26.3871 3.85199 23.6281 3.85199C18.6101 3.85199 14.7381 7.65199 14.4031 11.401C13.9081 16.937 16.7721 18.32 22.6501 18.32L30.3381 18.11C30.3381 18.11 32.8651 16.522 33.9121 16.032C35.5001 15.288 35.8451 12.659 34.6761 10.158Z" fill="#BDBEC0"/>
<path d="M15.2411 13.916C15.5761 10.167 19.4491 6.36701 24.4671 6.36701C27.2251 6.36701 29.2111 6.77401 30.3551 8.88301C31.7121 8.24601 34.0601 9.98301 35.3001 12.283C35.2009 11.5466 34.9905 10.8294 34.6761 10.156C33.5071 7.65601 30.9501 5.69301 29.5161 6.36601C28.3721 4.25701 26.3871 3.85001 23.6281 3.85001C18.6101 3.85001 14.7371 7.65001 14.4031 11.399C14.128 12.9869 14.4242 14.6208 15.2391 16.011C15.1732 15.3142 15.1739 14.6127 15.2411 13.916Z" fill="#F8F8F8"/>
<path d="M34.6761 10.158C33.5071 7.65799 30.9501 5.69499 29.5161 6.36799C28.3721 4.25899 26.3871 3.85199 23.6281 3.85199C18.6101 3.85199 14.7381 7.65199 14.4031 11.401C13.9081 16.937 16.7721 18.32 22.6501 18.32L30.3381 18.11C30.3381 18.11 32.8651 16.522 33.9121 16.032C35.5001 15.288 35.8451 12.659 34.6761 10.158Z" stroke="#45413C" stroke-linecap="round" stroke-linejoin="round"/>
<path d="M32.8662 16.433L31.1772 17.271L29.9582 13.005C29.8439 12.5957 29.5775 12.2456 29.2135 12.0262C28.8495 11.8069 28.4155 11.7349 28.0002 11.825C25.6778 12.3771 23.2585 12.3771 20.9362 11.825C20.5207 11.7346 20.0864 11.8064 19.7222 12.0258C19.358 12.2452 19.0915 12.5955 18.9772 13.005L17.7582 17.271L16.0932 16.433C13.7002 16.433 13.8612 20.626 16.5132 20.626H16.5202C17.0458 22.3268 18.1022 23.8144 19.5348 24.8711C20.9673 25.9277 22.7006 26.4978 24.4807 26.4978C26.2607 26.4978 27.994 25.9277 29.4265 24.8711C30.8591 23.8144 31.9155 22.3268 32.4412 20.626H32.4482C35.1002 20.626 35.2602 16.433 32.8662 16.433Z" fill="#FFCEBF" stroke="#45413C" stroke-linecap="round" stroke-linejoin="round"/>
<path d="M21.762 17.6901C22.3408 17.6901 22.81 17.2208 22.81 16.6421C22.81 16.0633 22.3408 15.5941 21.762 15.5941C21.1833 15.5941 20.7141 16.0633 20.7141 16.6421C20.7141 17.2208 21.1833 17.6901 21.762 17.6901Z" fill="#45413C"/>
<path d="M27.213 17.6901C27.7918 17.6901 28.261 17.2208 28.261 16.6421C28.261 16.0633 27.7918 15.5941 27.213 15.5941C26.6342 15.5941 26.165 16.0633 26.165 16.6421C26.165 17.2208 26.6342 17.6901 27.213 17.6901Z" fill="#45413C"/>
<path d="M19.455 19.788C19.9184 19.788 20.294 19.4124 20.294 18.949C20.294 18.4857 19.9184 18.11 19.455 18.11C18.9917 18.11 18.616 18.4857 18.616 18.949C18.616 19.4124 18.9917 19.788 19.455 19.788Z" fill="#FFB59E"/>
<path d="M29.52 19.788C29.9834 19.788 30.359 19.4124 30.359 18.949C30.359 18.4857 29.9834 18.11 29.52 18.11C29.0567 18.11 28.681 18.4857 28.681 18.949C28.681 19.4124 29.0567 19.788 29.52 19.788Z" fill="#FFB59E"/>
<path d="M22.394 21.669C23.0148 22.0832 23.7443 22.3043 24.4905 22.3043C25.2368 22.3043 25.9663 22.0832 26.587 21.669" stroke="#45413C" stroke-linecap="round" stroke-linejoin="round"/>
<path d="M72.2699 46.3961H44.7209C44.4557 46.3961 44.2013 46.5014 44.0138 46.6889C43.8263 46.8765 43.7209 47.1308 43.7209 47.3961V49.3511H73.2699V47.3961C73.2699 47.1308 73.1645 46.8765 72.977 46.6889C72.7895 46.5014 72.5351 46.3961 72.2699 46.3961Z" fill="#BF8256" stroke="#45413C" stroke-linecap="round" stroke-linejoin="round"/>
<path d="M71.7921 49.351H45.1981V67.08H71.7921V49.351Z" fill="#BF8256" stroke="#45413C" stroke-linecap="round" stroke-linejoin="round"/>
<path d="M56.018 52.306H49.153C48.6007 52.306 48.153 52.7537 48.153 53.306V63.126C48.153 63.6783 48.6007 64.126 49.153 64.126H56.018C56.5703 64.126 57.018 63.6783 57.018 63.126V53.306C57.018 52.7537 56.5703 52.306 56.018 52.306Z" fill="#915E3A" stroke="#45413C" stroke-linecap="round" stroke-linejoin="round"/>
<path d="M67.838 52.306H60.973C60.4207 52.306 59.973 52.7537 59.973 53.306V63.126C59.973 63.6783 60.4207 64.126 60.973 64.126H67.838C68.3903 64.126 68.838 63.6783 68.838 63.126V53.306C68.838 52.7537 68.3903 52.306 67.838 52.306Z" fill="#915E3A" stroke="#45413C" stroke-linecap="round" stroke-linejoin="round"/>
<path d="M67.3601 36.054H59.2341C58.4503 36.054 57.6987 36.3653 57.1446 36.9195C56.5904 37.4737 56.2791 38.2253 56.2791 39.009C56.2791 39.401 56.4348 39.7769 56.712 40.0541C56.9891 40.3313 57.3651 40.487 57.7571 40.487H68.8371C69.229 40.487 69.605 40.3313 69.8822 40.0541C70.1593 39.7769 70.3151 39.401 70.3151 39.009C70.3151 38.2253 70.0037 37.4737 69.4496 36.9195C68.8954 36.3653 68.1438 36.054 67.3601 36.054Z" fill="#46B000" stroke="#45413C" stroke-linecap="round" stroke-linejoin="round"/>
<path d="M58.4951 40.4871V43.4411" stroke="#45413C" stroke-linecap="round" stroke-linejoin="round"/>
<path d="M66.991 40.4871H64.036V46.3971H66.991V40.4871Z" fill="#FFE500" stroke="#45413C" stroke-linecap="round" stroke-linejoin="round"/>
</svg>

<svg xmlns="http://www.w3.org/2000/svg" width="82" height="84" fill="none" viewBox="0 0 82 84"><path fill="#daedf7" stroke="#daedf7" stroke-miterlimit="10" d="M41 81.432c22.091 0 40-17.909 40-40s-17.909-40-40-40-40 17.909-40 40 17.909 40 40 40Z"/><path fill="#87898c" d="M15.241 53.506v25.161h6.71l.766-17.615a1.752 1.752 0 0 1 3.5 0l.766 17.615h6.71V53.506z"/><path fill="#45413c" d="m21.088 59.727 3.38-2.028 3.426 2.056a1.83 1.83 0 0 0 1.6.136l4.2-1.632v-4.753H15.241v4.472l4.166 1.852a1.83 1.83 0 0 0 1.681-.103"/><path stroke="#45413c" stroke-linecap="round" stroke-linejoin="round" d="M15.241 53.506v25.161h6.71l.766-17.615a1.752 1.752 0 0 1 3.5 0l.766 17.615h6.71V53.506z"/><path fill="#87898c" d="M9.372 43.861c.008.678.087 1.354.237 2.015a15.086 15.086 0 0 1 29.606-.6c.227-.871.345-1.768.35-2.668a15.1 15.1 0 1 0-30.193 0z"/><path fill="#87898c" d="M39.565 42.603a15.1 15.1 0 1 0-30.193 0v1.258a9.66 9.66 0 0 0 5.869 8.874v.771h18.453v-1.237a10.9 10.9 0 0 0 5.871-9.666"/><path stroke="#45413c" stroke-linecap="round" stroke-linejoin="round" d="M39.565 42.603a15.1 15.1 0 1 0-30.193 0v1.258a9.66 9.66 0 0 0 5.869 8.874v.771h18.453v-1.237a10.9 10.9 0 0 0 5.871-9.666"/><path fill="#45413c" d="M24.479 83c7.72 0 13.978-.939 13.978-2.097s-6.258-2.097-13.978-2.097-13.978.939-13.978 2.097S16.759 83 24.479 83" opacity=".15"/><path fill="#45413c" stroke="#45413c" stroke-linecap="round" stroke-linejoin="round" d="M14.192 77.339a1.4 1.4 0 0 0 1.168 2.166h5.724a1.4 1.4 0 0 0 1.24-2.043c-1.524-2.927-6.39-2.765-8.132-.123M34.742 77.339a1.4 1.4 0 0 1-1.168 2.166H27.85a1.4 1.4 0 0 1-1.24-2.043c1.527-2.927 6.39-2.765 8.132-.123"/><path fill="#bf8256" stroke="#45413c" stroke-linecap="round" stroke-linejoin="round" d="M73.01 70.036H43.981a1 1 0 0 0-1 1v1.955H74.01v-1.955a1 1 0 0 0-1-1M72.531 67.816a.74.74 0 0 0-.738-.738H45.2a.74.74 0 0 0-.739.738v2.22h28.07z"/><path fill="#fff" stroke="#45413c" stroke-linecap="round" stroke-linejoin="round" d="m33.694 55.183-5.871 1.678-3.355-1.678-3.355 1.678-5.871-1.678v-1.677h18.452z"/><path stroke="#45413c" stroke-linecap="round" stroke-linejoin="round" d="M33.694 52.269V40.925"/><path fill="#fff" stroke="#45413c" stroke-linecap="round" stroke-linejoin="round" d="m24.467 49.316 5.953-20.587a15.1 15.1 0 0 0-11.906 0z"/><path fill="#ffcebf" stroke="#45413c" stroke-linecap="round" stroke-linejoin="round" d="M27.587 28.729a8.93 8.93 0 0 1-6.23 0l.007-3.679h6.23z"/><path stroke="#45413c" stroke-linecap="round" stroke-linejoin="round" d="M24.468 29.052v26.131M24.467 49.316 18.514 28.73a15.1 15.1 0 0 0-4.722 3.2l3.965 3.965v4.194zM24.467 49.316 30.42 28.73a15.1 15.1 0 0 1 4.722 3.2l-3.965 3.965v4.194z"/><path fill="#45413c" stroke="#45413c" stroke-linecap="round" stroke-linejoin="round" d="m24.468 29.051-3.836-1.973a.724.724 0 0 0-1.056.645v2.657a.724.724 0 0 0 1.056.645zM24.468 29.051l3.837-1.973a.725.725 0 0 1 1.056.645v2.657a.725.725 0 0 1-1.056.645z"/><path fill="#fff" stroke="#45413c" stroke-linecap="round" stroke-linejoin="round" d="M27.823 52.667a2.516 2.516 0 0 0 0-5.032h-2.516v5.032z"/><path stroke="#45413c" stroke-linecap="round" stroke-linejoin="round" d="M15.242 52.735a9.6 9.6 0 0 0 3.775.771h6.29v-5.871h-6.29a3.78 3.78 0 0 1-3.775-3.774v-2.936"/><path fill="#fff" stroke="#45413c" stroke-linecap="round" stroke-linejoin="round" d="M26.823 46.796h-6.387a1 1 0 0 0-1 1v11.419a1 1 0 0 0 1 1h6.387a1 1 0 0 0 1-1V47.796a1 1 0 0 0-1-1"/><path fill="#bdbec0" d="M34.676 10.158c-1.169-2.5-3.726-4.463-5.16-3.79-1.144-2.109-3.129-2.516-5.888-2.516-5.018 0-8.89 3.8-9.225 7.549-.495 5.536 2.37 6.919 8.247 6.919l7.688-.21s2.527-1.588 3.574-2.078c1.588-.744 1.933-3.373.764-5.874"/><path fill="#f8f8f8" d="M15.241 13.916c.335-3.749 4.208-7.549 9.226-7.549 2.758 0 4.744.407 5.888 2.516 1.357-.637 3.705 1.1 4.945 3.4a7.4 7.4 0 0 0-.624-2.127c-1.169-2.5-3.726-4.463-5.16-3.79-1.144-2.109-3.129-2.516-5.888-2.516-5.018 0-8.89 3.8-9.225 7.549a6.82 6.82 0 0 0 .836 4.612 11 11 0 0 1 .002-2.095"/><path stroke="#45413c" stroke-linecap="round" stroke-linejoin="round" d="M34.676 10.158c-1.169-2.5-3.726-4.463-5.16-3.79-1.144-2.109-3.129-2.516-5.888-2.516-5.018 0-8.89 3.8-9.225 7.549-.495 5.536 2.37 6.919 8.247 6.919l7.688-.21s2.527-1.588 3.574-2.078c1.588-.744 1.933-3.373.764-5.874"/><path fill="#ffcebf" stroke="#45413c" stroke-linecap="round" stroke-linejoin="round" d="m32.866 16.433-1.689.838-1.219-4.266A1.666 1.666 0 0 0 28 11.825a15.3 15.3 0 0 1-7.064 0 1.666 1.666 0 0 0-1.959 1.18l-1.219 4.266-1.665-.838c-2.393 0-2.232 4.193.42 4.193h.007a8.332 8.332 0 0 0 15.921 0h.007c2.652 0 2.812-4.193.418-4.193"/><path fill="#45413c" d="M21.762 17.69a1.048 1.048 0 1 0 0-2.096 1.048 1.048 0 0 0 0 2.096M27.213 17.69a1.048 1.048 0 1 0 0-2.096 1.048 1.048 0 0 0 0 2.096"/><path fill="#ffb59e" d="M19.455 19.788a.839.839 0 1 0 0-1.678.839.839 0 0 0 0 1.678M29.52 19.788a.839.839 0 1 0 0-1.678.839.839 0 0 0 0 1.678"/><path stroke="#45413c" stroke-linecap="round" stroke-linejoin="round" d="M22.394 21.669a3.78 3.78 0 0 0 4.193 0"/><path fill="#bf8256" stroke="#45413c" stroke-linecap="round" stroke-linejoin="round" d="M72.27 46.396H44.72a1 1 0 0 0-1 1v1.955h29.55v-1.955a1 1 0 0 0-1-1M71.792 49.351H45.198V67.08h26.594z"/><path fill="#915e3a" stroke="#45413c" stroke-linecap="round" stroke-linejoin="round" d="M56.018 52.306h-6.865a1 1 0 0 0-1 1v9.82a1 1 0 0 0 1 1h6.865a1 1 0 0 0 1-1v-9.82a1 1 0 0 0-1-1M67.838 52.306h-6.865a1 1 0 0 0-1 1v9.82a1 1 0 0 0 1 1h6.865a1 1 0 0 0 1-1v-9.82a1 1 0 0 0-1-1"/><path fill="#46b000" stroke="#45413c" stroke-linecap="round" stroke-linejoin="round" d="M67.36 36.054h-8.126a2.955 2.955 0 0 0-2.955 2.955 1.48 1.48 0 0 0 1.478 1.478h11.08a1.48 1.48 0 0 0 1.478-1.478 2.955 2.955 0 0 0-2.955-2.955"/><path stroke="#45413c" stroke-linecap="round" stroke-linejoin="round" d="M58.495 40.487v2.954"/><path fill="#ffe500" stroke="#45413c" stroke-linecap="round" stroke-linejoin="round" d="M66.991 40.487h-2.955v5.91h2.955z"/></svg>
